assets/img/braze_icons/line-chart-down-03.svg

<svg fill="none" height="24" viewBox="0 0 24 24" width="24" xmlns="http://www.w3.org/2000/svg"><path d="m17.8385 2h-11.67704c-.52713-.00002-.98192-.00003-1.35649.03057-.39534.0323-.78856.10362-1.16694.29641-.56449.28762-1.02343.74656-1.31105 1.31105-.10247.20112-.17063.40644-.21685.61403-.02509.11273-.03764.16909-.0314.24475.00494.05995.02775.13835.05575.19159.03532.06719.08557.11744.18607.21794l5.67945 5.67946 1.74357-1.74359c.08419-.08425.18476-.1849.28063-.26626.111-.09429.2796-.21984.5123-.29543.3012-.09788.6258-.09788.927 0 .2327.07559.4013.20114.5123.29543.0959.08135.1964.18199.2806.26623l3.7436 3.74362v-1.5858c0-.5523.4477-1 1-1s1 .4477 1 1v4c0 .5523-.4477 1-1 1h-4c-.5523 0-1-.4477-1-1s.4477-1 1-1h1.5858l-3.5858-3.5858-1.74356 1.7436c-.0842.0842-.18475.1849-.28061.2663-.11107.0942-.27967.2198-.5123.2954-.30127.0979-.62579.0979-.92705 0-.23264-.0756-.40124-.2012-.51231-.2954-.09582-.0814-.19636-.182-.28054-.2662l-3.37794-3.378c-.42838-.42837-.64257-.64256-.82646-.65703-.15956-.01256-.31549.05203-.41943.17373-.1198.14026-.1198.44317-.1198 1.04899v8.49291c-.00002.5272-.00003.982.03057 1.3565.0323.3954.10362.7886.29641 1.167.28762.5645.74656 1.0234 1.31105 1.311.37838.1928.7716.2641 1.16694.2964.37457.0306.82933.0306 1.35647.0306h11.67716c.5271 0 .9819 0 1.3564-.0306.3954-.0323.7886-.1036 1.167-.2964.5645-.2876 1.0234-.7465 1.311-1.311.1928-.3784.2641-.7716.2964-1.167.0306-.3745.0306-.8293.0306-1.3564v-11.67716c0-.52714 0-.9819-.0306-1.35647-.0323-.39534-.1036-.78856-.2964-1.16694-.2876-.56449-.7465-1.02343-1.311-1.31105-.3784-.19279-.7716-.26411-1.167-.29641-.3745-.0306-.8293-.03059-1.3565-.03057z" fill="#801ed7"/></svg>

<svg width="24" height="24" viewBox="0 0 24 24" fill="none" xmlns="http://www.w3.org/2000/svg">
<path d="M17.8385 2H6.16146C5.63433 1.99998 5.17954 1.99997 4.80497 2.03057C4.40963 2.06287 4.01641 2.13419 3.63803 2.32698C3.07354 2.6146 2.6146 3.07354 2.32698 3.63803C2.22451 3.83915 2.15635 4.04447 2.11013 4.25206C2.08504 4.36479 2.07249 4.42115 2.07873 4.49681C2.08367 4.55676 2.10648 4.63516 2.13448 4.6884C2.1698 4.75559 2.22005 4.80584 2.32055 4.90634L8 10.5858L9.74357 8.84221C9.82776 8.75796 9.92833 8.65731 10.0242 8.57595C10.1352 8.48166 10.3038 8.35611 10.5365 8.28052C10.8377 8.18264 11.1623 8.18264 11.4635 8.28052C11.6962 8.35611 11.8648 8.48166 11.9758 8.57595C12.0717 8.6573 12.1722 8.75794 12.2564 8.84218L16 12.5858V11C16 10.4477 16.4477 10 17 10C17.5523 10 18 10.4477 18 11V15C18 15.5523 17.5523 16 17 16H13C12.4477 16 12 15.5523 12 15C12 14.4477 12.4477 14 13 14H14.5858L11 10.4142L9.25644 12.1578C9.17224 12.242 9.07169 12.3427 8.97583 12.4241C8.86476 12.5183 8.69616 12.6439 8.46353 12.7195C8.16226 12.8174 7.83774 12.8174 7.53648 12.7195C7.30384 12.6439 7.13524 12.5183 7.02417 12.4241C6.92835 12.3427 6.82781 12.2421 6.74363 12.1579L3.36569 8.7799C2.93731 8.35153 2.72312 8.13734 2.53923 8.12287C2.37967 8.11031 2.22374 8.1749 2.1198 8.2966C2 8.43686 2 8.73977 2 9.34559V17.8385C1.99998 18.3657 1.99997 18.8205 2.03057 19.195C2.06287 19.5904 2.13419 19.9836 2.32698 20.362C2.6146 20.9265 3.07354 21.3854 3.63803 21.673C4.01641 21.8658 4.40963 21.9371 4.80497 21.9694C5.17954 22 5.6343 22 6.16144 22H17.8386C18.3657 22 18.8205 22 19.195 21.9694C19.5904 21.9371 19.9836 21.8658 20.362 21.673C20.9265 21.3854 21.3854 20.9265 21.673 20.362C21.8658 19.9836 21.9371 19.5904 21.9694 19.195C22 18.8205 22 18.3657 22 17.8386V6.16144C22 5.6343 22 5.17954 21.9694 4.80497C21.9371 4.40963 21.8658 4.01641 21.673 3.63803C21.3854 3.07354 20.9265 2.6146 20.362 2.32698C19.9836 2.13419 19.5904 2.06287 19.195 2.03057C18.8205 1.99997 18.3657 1.99998 17.8385 2Z" fill="#801ED7"/>
</svg>
